!!!OTL: "Jagdgebrauch" LUST IST VIEL IN DIESER WELT;
!!!ARE: Europa, Mitteleuropa, Deutschland, Rhein
!!!SCT: Z1282
!!!YEM: Copyright 1995, estate of Helmut Schaffrath.
**kern
*ICvox
*Ivox
*M4/4
*k[f#]
*G:
=1
{4.g
8a
4b
4cc
=2
4dd
8b
8a
2g}
=3
{4gg
4gg
4ff#
4ff#
=4
4ee
4ee
2dd}
=5
{4.gg
8ff#
4ee
8gg
8ee
=6
4.dd
8cc
8cc
8b
4b}
=7
{4ee
4dd
4cc
4b
=8
4a
8dd
8cc
8b
8a
4g}
=9
{4g
4a
4b
4cc
=10
4dd
8ee
8ff#
2gg}
=11
{4dd
4gg
4ee
8dd
8cc
=12
4b
4a
2g}
==
!!!AGN: Jaeger - Lied
!!!ONB: ESAC (Essen Associative Code) Database: ZUCCAL
!!!AMT: simple quadruple
!!!AIN: vox
!!!EED: Helmut Schaffrath
!!!EEV: 1.0
*-
